X:106
T:Manchester Hornpipe,aka. JGi.106
T:Untitled in MS. JGi.106
O:Tealby,Lincolnshire
M:C|
L:1/8
Q:1/2=90
S:Joshua Gibbons MS,1823,Tealby,Lincs.
R:.hornpipe
Z:VMP/R.Greig, 2009
K:F
“qu in MS”c2|fefc Acfa|gfed cega|bagf edbg|efde cbag|
fefc Acfa|gfed cegb|ac’af gbge|f2f2f2:|
|:ab|c’afff2bc’|d’bggg2bc’|d’afa bagf|efde cbag|
fefc Acfa|gfed cegb|ac’af gbge|[fd]2 [fd]2[fd]2:|

